X: 9
T: Humours Of Drinagh, The
Z: UPipes & harp
S: https://thesession.org/tunes/413#setting48309
R: jig
M: 6/8
L: 1/8
K: Dmaj
|:~F3 ABc|dfd ecA|~F3 ABc|dcA {c} G3|
~F3 ABc|dfd ecA|~f3 gec|Adc d3:|
|:~f3 ~g3|agf gfe|~f3 ~g3|agf g3|
agf g2 e|f2 d ecA|~f3 gec|Adc d3:|

